icon-themes/breeze_svg/cmd/sc_dbqueryedit.svg

<svg xmlns="http://www.w3.org/2000/svg" viewBox="0 0 16 16">
 <path 
     style="fill:#4d4d4d" 
     d="M 7.40625 2 A 6 2 0 0 0 2 4 L 2 12 A 6 2 0 0 0 5 13.71875 L 5 12.78125 A 5 1 0 0 1 3 12 L 3 9.09375 A 6 2 0 0 0 8 10 A 6 2 0 0 0 13 9.09375 L 13 11 L 14 11 L 14 4 A 6 2 0 0 0 8 2 A 6 2 0 0 0 7.40625 2 z M 7.65625 2.9960938 A 5 1 0 0 1 8 3 A 5 1 0 0 1 13 4 A 5 1 0 0 1 8 5 A 5 1 0 0 1 3 4 A 5 1 0 0 1 7.15625 3 A 5 1 0 0 1 7.65625 2.9960938 z M 3 5.09375 A 6 2 0 0 0 8 6 A 6 2 0 0 0 13 5.09375 L 13 8 A 5 1 0 0 1 8 9 A 5 1 0 0 1 3 8 L 3 5.09375 z "
     />
 <path 
     style="fill:#f47750" 
     d="M 7 12 C 6.4477153 12 6 12.447715 6 13 C 6 13.552285 6.4477153 14 7 14 C 7.5522847 14 8 13.552285 8 13 C 8 12.447715 7.5522847 12 7 12 z M 10 12 C 9.4477153 12 9 12.447723 9 13 C 9 13.552277 9.4477153 14 10 14 C 10.552285 14 11 13.552277 11 13 C 11 12.447723 10.552285 12 10 12 z M 13 12 C 12.447715 12 12 12.447723 12 13 C 12 13.552277 12.447715 14 13 14 C 13.552285 14 14 13.552277 14 13 C 14 12.447723 13.552285 12 13 12 z "
     />
 </svg>

<svg viewBox="0 0 16 16" xmlns="http://www.w3.org/2000/svg"><path d="m7.40625 2a6 2 0 0 0 -5.40625 2v8a6 2 0 0 0 3 1.71875v-.9375a5 1 0 0 1 -2-.78125v-2.90625a6 2 0 0 0 5 .90625 6 2 0 0 0 5-.90625v1.90625h1v-7a6 2 0 0 0 -6-2 6 2 0 0 0 -.59375 0zm.25.9960938a5 1 0 0 1 .34375.0039062 5 1 0 0 1 5 1 5 1 0 0 1 -5 1 5 1 0 0 1 -5-1 5 1 0 0 1 4.15625-1 5 1 0 0 1 .5-.0039062zm-4.65625 2.0976562a6 2 0 0 0 5 .90625 6 2 0 0 0 5-.90625v2.90625a5 1 0 0 1 -5 1 5 1 0 0 1 -5-1z" fill="#4d4d4d"/><path d="m7 12c-.5522847 0-1 .447715-1 1s.4477153 1 1 1 1-.447715 1-1-.4477153-1-1-1zm3 0c-.5522847 0-1 .447723-1 1s.4477153 1 1 1c.552285 0 1-.447723 1-1s-.447715-1-1-1zm3 0c-.552285 0-1 .447723-1 1s.447715 1 1 1 1-.447723 1-1-.447715-1-1-1z" fill="#f47750"/></svg>
